X:124
T: De schwarze Man (2-4), S. 8
N: K1098
O: Luxemburg
S: KINTZELE, Guillaume: An der Ucht, Bd. 2, Luxemburg 1927]
R: Arbeits-, Berufslied]
M: 2/4
L: 1/8
K: G
 | G2GB | A2A2 | GFEF | G2D2 |
G2GB | A2A2 | GFEF | G4 |
B2B2 | c4 | A2A2 | B4 |
G2GB | A2A2 | GFEF | G4 |
B2B2 | c4 | A2A2 | B4 |
G2GB | A2A2 | GFEF | G4

@@@ Tune index: 8178
